X: 356
T:The Mountain Road
N: page 127
N: heptatonic
R: Reel
M:4/4
L:1/8
K:D major
"D"F2 AF BFAF | F2 AF "A"EFDE | "D"F2 AF BFAF | "A"GEFD EDB,D |\
"D"F2 AF BFAF |
 F2 AF "A"EFDE | "D"FAAF "G"BAFB | "D"ABde "A"fd d2 ||\
 "D"d3 B ADFA | dcde "A"fgfe | "D"dcdB ADFA |
 "A"GEFD EDB,D |\
"D"d3 B ADFA | dcde "A"fgfe | "D"dcdB ADFA | "A"GEFD EDB,D :|
